images/content/semiregular-convex-uniform/decagonal-dipyramid.svg

<?xml version="1.0" encoding="UTF-8"?>
<svg xmlns="http://www.w3.org/2000/svg" xmlns:xlink="http://www.w3.org/1999/xlink" width="80.13pt" height="199.94pt" viewBox="0 0 80.13 199.94" version="1.2">
<g id="surface1">
<path style=" stroke:none;fill-rule:nonzero;fill:rgb(67.381287%,44.091797%,56.25%);fill-opacity:1;" d="M 41.011719 5.714844 L 51.527344 91.019531 L 34.703125 90.777344 "/>
<path style="fill:none;stroke-width:5;stroke-linecap:round;stroke-linejoin:round;stroke:rgb(0%,0%,0%);stroke-opacity:1;stroke-miterlimit:10;" d="M 414.569976 1952.185181 L 520.867945 1089.876472 L 350.799092 1092.324642 Z M 414.569976 1952.185181 " transform="matrix(0.0989259,0,0,-0.0989259,0,198.83657)"/>
<path style=" stroke:none;fill-rule:nonzero;fill:rgb(68.75%,58.396912%,73.4375%);fill-opacity:1;" d="M 41.011719 179.941406 L 51.527344 91.019531 L 34.703125 90.777344 "/>
<path style="fill:none;stroke-width:5;stroke-linecap:round;stroke-linejoin:round;stroke:rgb(0%,0%,0%);stroke-opacity:1;stroke-miterlimit:10;" d="M 414.569976 191.003157 L 520.867945 1089.876472 L 350.799092 1092.324642 Z M 414.569976 191.003157 " transform="matrix(0.0989259,0,0,-0.0989259,0,198.83657)"/>
<path style=" stroke:none;fill-rule:nonzero;fill:rgb(83.201599%,56.443787%,53.318787%);fill-opacity:1;" d="M 41.011719 5.714844 L 34.703125 90.777344 L 19.945312 92.375 "/>
<path style="fill:none;stroke-width:5;stroke-linecap:round;stroke-linejoin:round;stroke:rgb(0%,0%,0%);stroke-opacity:1;stroke-miterlimit:10;" d="M 414.569976 1952.185181 L 350.799092 1092.324642 L 201.618659 1076.174616 Z M 414.569976 1952.185181 " transform="matrix(0.0989259,0,0,-0.0989259,0,198.83657)"/>
<path style=" stroke:none;fill-rule:nonzero;fill:rgb(83.396912%,71.289062%,73.046875%);fill-opacity:1;" d="M 41.011719 179.941406 L 34.703125 90.777344 L 19.945312 92.375 "/>
<path style="fill:none;stroke-width:5;stroke-linecap:round;stroke-linejoin:round;stroke:rgb(0%,0%,0%);stroke-opacity:1;stroke-miterlimit:10;" d="M 414.569976 191.003157 L 350.799092 1092.324642 L 201.618659 1076.174616 Z M 414.569976 191.003157 " transform="matrix(0.0989259,0,0,-0.0989259,0,198.83657)"/>
<path style=" stroke:none;fill-rule:nonzero;fill:rgb(43.896484%,23.706055%,50.78125%);fill-opacity:1;" d="M 41.011719 5.714844 L 64.878906 93.039062 L 51.527344 91.019531 "/>
<path style="fill:none;stroke-width:5;stroke-linecap:round;stroke-linejoin:round;stroke:rgb(0%,0%,0%);stroke-opacity:1;stroke-miterlimit:10;" d="M 414.569976 1952.185181 L 655.833197 1069.461892 L 520.867945 1089.876472 Z M 414.569976 1952.185181 " transform="matrix(0.0989259,0,0,-0.0989259,0,198.83657)"/>
<path style=" stroke:none;fill-rule:nonzero;fill:rgb(48.388672%,43.406677%,72.65625%);fill-opacity:1;" d="M 41.011719 179.941406 L 64.878906 93.039062 L 51.527344 91.019531 "/>
<path style="fill:none;stroke-width:5;stroke-linecap:round;stroke-linejoin:round;stroke:rgb(0%,0%,0%);stroke-opacity:1;stroke-miterlimit:10;" d="M 414.569976 191.003157 L 655.833197 1069.461892 L 520.867945 1089.876472 Z M 414.569976 191.003157 " transform="matrix(0.0989259,0,0,-0.0989259,0,198.83657)"/>
<path style=" stroke:none;fill-rule:nonzero;fill:rgb(96.289062%,63.28125%,31.005859%);fill-opacity:1;" d="M 41.011719 5.714844 L 19.945312 92.375 L 12.445312 95.351562 "/>
<path style="fill:none;stroke-width:5;stroke-linecap:round;stroke-linejoin:round;stroke:rgb(0%,0%,0%);stroke-opacity:1;stroke-miterlimit:10;" d="M 414.569976 1952.185181 L 201.618659 1076.174616 L 125.804357 1046.085815 Z M 414.569976 1952.185181 " transform="matrix(0.0989259,0,0,-0.0989259,0,198.83657)"/>
<path style=" stroke:none;fill-rule:nonzero;fill:rgb(97.65625%,87.889099%,67.1875%);fill-opacity:1;" d="M 41.011719 179.941406 L 19.945312 92.375 L 12.445312 95.351562 "/>
<path style="fill:none;stroke-width:5;stroke-linecap:round;stroke-linejoin:round;stroke:rgb(0%,0%,0%);stroke-opacity:1;stroke-miterlimit:10;" d="M 414.569976 191.003157 L 201.618659 1076.174616 L 125.804357 1046.085815 Z M 414.569976 191.003157 " transform="matrix(0.0989259,0,0,-0.0989259,0,198.83657)"/>
<path style=" stroke:none;fill-rule:nonzero;fill:rgb(0%,8.105469%,60.742188%);fill-opacity:1;" d="M 41.011719 179.941406 L 69.84375 96.226562 L 64.878906 93.039062 "/>
<path style="fill:none;stroke-width:5;stroke-linecap:round;stroke-linejoin:round;stroke:rgb(0%,0%,0%);stroke-opacity:1;stroke-miterlimit:10;" d="M 414.569976 191.003157 L 706.020685 1037.240813 L 655.833197 1069.461892 Z M 414.569976 191.003157 " transform="matrix(0.0989259,0,0,-0.0989259,0,198.83657)"/>
<path style=" stroke:none;fill-rule:nonzero;fill:rgb(94.139099%,59.179688%,18.701172%);fill-opacity:1;" d="M 41.011719 179.941406 L 69.84375 96.226562 L 63.714844 99.464844 "/>
<path style="fill:none;stroke-width:5;stroke-linecap:round;stroke-linejoin:round;stroke:rgb(0%,0%,0%);stroke-opacity:1;stroke-miterlimit:10;" d="M 414.569976 191.003157 L 706.020685 1037.240813 L 644.066185 1004.506409 Z M 414.569976 191.003157 " transform="matrix(0.0989259,0,0,-0.0989259,0,198.83657)"/>
<path style=" stroke:none;fill-rule:nonzero;fill:rgb(84.568787%,55.859375%,50.389099%);fill-opacity:1;" d="M 41.011719 179.941406 L 48.066406 101.390625 L 63.714844 99.464844 "/>
<path style="fill:none;stroke-width:5;stroke-linecap:round;stroke-linejoin:round;stroke:rgb(0%,0%,0%);stroke-opacity:1;stroke-miterlimit:10;" d="M 414.569976 191.003157 L 485.882804 985.039508 L 644.066185 1004.506409 Z M 414.569976 191.003157 " transform="matrix(0.0989259,0,0,-0.0989259,0,198.83657)"/>
<path style=" stroke:none;fill-rule:nonzero;fill:rgb(66.796875%,42.30957%,54.296875%);fill-opacity:1;" d="M 41.011719 179.941406 L 29.320312 101.085938 L 48.066406 101.390625 "/>
<path style="fill:none;stroke-width:5;stroke-linecap:round;stroke-linejoin:round;stroke:rgb(0%,0%,0%);stroke-opacity:1;stroke-miterlimit:10;" d="M 414.569976 191.003157 L 296.386536 988.119464 L 485.882804 985.039508 Z M 414.569976 191.003157 " transform="matrix(0.0989259,0,0,-0.0989259,0,198.83657)"/>
<path style=" stroke:none;fill-rule:nonzero;fill:rgb(38.989258%,17.893982%,46.897888%);fill-opacity:1;" d="M 41.011719 179.941406 L 15.675781 98.707031 L 29.320312 101.085938 "/>
<path style="fill:none;stroke-width:5;stroke-linecap:round;stroke-linejoin:round;stroke:rgb(0%,0%,0%);stroke-opacity:1;stroke-miterlimit:10;" d="M 414.569976 191.003157 L 158.459788 1012.166813 L 296.386536 988.119464 Z M 414.569976 191.003157 " transform="matrix(0.0989259,0,0,-0.0989259,0,198.83657)"/>
<path style=" stroke:none;fill-rule:nonzero;fill:rgb(27.392578%,27.392578%,27.392578%);fill-opacity:1;" d="M 41.011719 179.941406 L 12.445312 95.351562 L 15.675781 98.707031 "/>
<path style="fill:none;stroke-width:5;stroke-linecap:round;stroke-linejoin:round;stroke:rgb(0%,0%,0%);stroke-opacity:1;stroke-miterlimit:10;" d="M 414.569976 191.003157 L 125.804357 1046.085815 L 158.459788 1012.166813 Z M 414.569976 191.003157 " transform="matrix(0.0989259,0,0,-0.0989259,0,198.83657)"/>
<path style=" stroke:none;fill-rule:nonzero;fill:rgb(17.601013%,17.601013%,32.200623%);fill-opacity:1;" d="M 41.011719 5.714844 L 69.84375 96.226562 L 64.878906 93.039062 "/>
<path style="fill:none;stroke-width:5;stroke-linecap:round;stroke-linejoin:round;stroke:rgb(0%,0%,0%);stroke-opacity:1;stroke-miterlimit:10;" d="M 414.569976 1952.185181 L 706.020685 1037.240813 L 655.833197 1069.461892 Z M 414.569976 1952.185181 " transform="matrix(0.0989259,0,0,-0.0989259,0,198.83657)"/>
<path style=" stroke:none;fill-rule:nonzero;fill:rgb(2.600098%,2.600098%,54.881287%);fill-opacity:1;" d="M 41.011719 5.714844 L 12.445312 95.351562 L 15.675781 98.707031 "/>
<path style="fill:none;stroke-width:5;stroke-linecap:round;stroke-linejoin:round;stroke:rgb(0%,0%,0%);stroke-opacity:1;stroke-miterlimit:10;" d="M 414.569976 1952.185181 L 125.804357 1046.085815 L 158.459788 1012.166813 Z M 414.569976 1952.185181 " transform="matrix(0.0989259,0,0,-0.0989259,0,198.83657)"/>
<path style=" stroke:none;fill-rule:nonzero;fill:rgb(98.4375%,90.039062%,63.28125%);fill-opacity:1;" d="M 41.011719 5.714844 L 69.84375 96.226562 L 63.714844 99.464844 "/>
<path style="fill:none;stroke-width:5;stroke-linecap:round;stroke-linejoin:round;stroke:rgb(0%,0%,0%);stroke-opacity:1;stroke-miterlimit:10;" d="M 414.569976 1952.185181 L 706.020685 1037.240813 L 644.066185 1004.506409 Z M 414.569976 1952.185181 " transform="matrix(0.0989259,0,0,-0.0989259,0,198.83657)"/>
<path style=" stroke:none;fill-rule:nonzero;fill:rgb(44.993591%,41.088867%,72.459412%);fill-opacity:1;" d="M 41.011719 5.714844 L 15.675781 98.707031 L 29.320312 101.085938 "/>
<path style="fill:none;stroke-width:5;stroke-linecap:round;stroke-linejoin:round;stroke:rgb(0%,0%,0%);stroke-opacity:1;stroke-miterlimit:10;" d="M 414.569976 1952.185181 L 158.459788 1012.166813 L 296.386536 988.119464 Z M 414.569976 1952.185181 " transform="matrix(0.0989259,0,0,-0.0989259,0,198.83657)"/>
<path style=" stroke:none;fill-rule:nonzero;fill:rgb(84.764099%,72.851562%,73.046875%);fill-opacity:1;" d="M 41.011719 5.714844 L 48.066406 101.390625 L 63.714844 99.464844 "/>
<path style="fill:none;stroke-width:5;stroke-linecap:round;stroke-linejoin:round;stroke:rgb(0%,0%,0%);stroke-opacity:1;stroke-miterlimit:10;" d="M 414.569976 1952.185181 L 485.882804 985.039508 L 644.066185 1004.506409 Z M 414.569976 1952.185181 " transform="matrix(0.0989259,0,0,-0.0989259,0,198.83657)"/>
<path style=" stroke:none;fill-rule:nonzero;fill:rgb(68.359375%,58.396912%,73.631287%);fill-opacity:1;" d="M 41.011719 5.714844 L 29.320312 101.085938 L 48.066406 101.390625 "/>
<path style="fill:none;stroke-width:5;stroke-linecap:round;stroke-linejoin:round;stroke:rgb(0%,0%,0%);stroke-opacity:1;stroke-miterlimit:10;" d="M 414.569976 1952.185181 L 296.386536 988.119464 L 485.882804 985.039508 Z M 414.569976 1952.185181 " transform="matrix(0.0989259,0,0,-0.0989259,0,198.83657)"/>
</g>
</svg>

<svg xmlns="http://www.w3.org/2000/svg" width="106.84" height="266.587" viewBox="0 0 80.13 199.94" version="1.2"><path style="stroke:none;fill-rule:nonzero;fill:#ac708f;fill-opacity:1" d="M41.012 5.715 51.527 91.02l-16.824-.243"/><path style="fill:none;stroke-width:5;stroke-linecap:round;stroke-linejoin:round;stroke:#000;stroke-opacity:1;stroke-miterlimit:10" d="m414.57 1952.185 106.298-862.309-170.069 2.449Zm0 0" transform="matrix(.09893 0 0 -.09893 0 198.837)"/><path style="stroke:none;fill-rule:nonzero;fill:#af95bb;fill-opacity:1" d="M41.012 179.941 51.527 91.02l-16.824-.243"/><path style="fill:none;stroke-width:5;stroke-linecap:round;stroke-linejoin:round;stroke:#000;stroke-opacity:1;stroke-miterlimit:10" d="m414.57 191.003 106.298 898.873-170.069 2.449Zm0 0" transform="matrix(.09893 0 0 -.09893 0 198.837)"/><path style="stroke:none;fill-rule:nonzero;fill:#d49088;fill-opacity:1" d="m41.012 5.715-6.309 85.062-14.758 1.598"/><path style="fill:none;stroke-width:5;stroke-linecap:round;stroke-linejoin:round;stroke:#000;stroke-opacity:1;stroke-miterlimit:10" d="m414.57 1952.185-63.77-859.86-149.181-16.15Zm0 0" transform="matrix(.09893 0 0 -.09893 0 198.837)"/><path style="stroke:none;fill-rule:nonzero;fill:#d5b6ba;fill-opacity:1" d="m41.012 179.941-6.309-89.164-14.758 1.598"/><path style="fill:none;stroke-width:5;stroke-linecap:round;stroke-linejoin:round;stroke:#000;stroke-opacity:1;stroke-miterlimit:10" d="m414.57 191.003-63.77 901.322-149.181-16.15Zm0 0" transform="matrix(.09893 0 0 -.09893 0 198.837)"/><path style="stroke:none;fill-rule:nonzero;fill:#703c81;fill-opacity:1" d="m41.012 5.715 23.867 87.324-13.352-2.02"/><path style="fill:none;stroke-width:5;stroke-linecap:round;stroke-linejoin:round;stroke:#000;stroke-opacity:1;stroke-miterlimit:10" d="m414.57 1952.185 241.263-882.723-134.965 20.414Zm0 0" transform="matrix(.09893 0 0 -.09893 0 198.837)"/><path style="stroke:none;fill-rule:nonzero;fill:#7b6fb9;fill-opacity:1" d="M41.012 179.941 64.879 93.04l-13.352-2.02"/><path style="fill:none;stroke-width:5;stroke-linecap:round;stroke-linejoin:round;stroke:#000;stroke-opacity:1;stroke-miterlimit:10" d="m414.57 191.003 241.263 878.459-134.965 20.414Zm0 0" transform="matrix(.09893 0 0 -.09893 0 198.837)"/><path style="stroke:none;fill-rule:nonzero;fill:#f6a14f;fill-opacity:1" d="m41.012 5.715-21.067 86.66-7.5 2.977"/><path style="fill:none;stroke-width:5;stroke-linecap:round;stroke-linejoin:round;stroke:#000;stroke-opacity:1;stroke-miterlimit:10" d="m414.57 1952.185-212.951-876.01-75.815-30.09Zm0 0" transform="matrix(.09893 0 0 -.09893 0 198.837)"/><path style="stroke:none;fill-rule:nonzero;fill:#f9e0ab;fill-opacity:1" d="M41.012 179.941 19.945 92.375l-7.5 2.977"/><path style="fill:none;stroke-width:5;stroke-linecap:round;stroke-linejoin:round;stroke:#000;stroke-opacity:1;stroke-miterlimit:10" d="m414.57 191.003-212.951 885.172-75.815-30.09Zm0 0" transform="matrix(.09893 0 0 -.09893 0 198.837)"/><path style="stroke:none;fill-rule:nonzero;fill:#00159b;fill-opacity:1" d="m41.012 179.941 28.832-83.714-4.965-3.188"/><path style="fill:none;stroke-width:5;stroke-linecap:round;stroke-linejoin:round;stroke:#000;stroke-opacity:1;stroke-miterlimit:10" d="m414.57 191.003 291.45 846.238-50.187 32.22Zm0 0" transform="matrix(.09893 0 0 -.09893 0 198.837)"/><path style="stroke:none;fill-rule:nonzero;fill:#f09730;fill-opacity:1" d="m41.012 179.941 28.832-83.714-6.13 3.238"/><path style="fill:none;stroke-width:5;stroke-linecap:round;stroke-linejoin:round;stroke:#000;stroke-opacity:1;stroke-miterlimit:10" d="m414.57 191.003 291.45 846.238-61.954-32.735Zm0 0" transform="matrix(.09893 0 0 -.09893 0 198.837)"/><path style="stroke:none;fill-rule:nonzero;fill:#d88e80;fill-opacity:1" d="m41.012 179.941 7.054-78.55 15.649-1.926"/><path style="fill:none;stroke-width:5;stroke-linecap:round;stroke-linejoin:round;stroke:#000;stroke-opacity:1;stroke-miterlimit:10" d="m414.57 191.003 71.313 794.037 158.183 19.466Zm0 0" transform="matrix(.09893 0 0 -.09893 0 198.837)"/><path style="stroke:none;fill-rule:nonzero;fill:#aa6c8a;fill-opacity:1" d="M41.012 179.941 29.32 101.086l18.746.305"/><path style="fill:none;stroke-width:5;stroke-linecap:round;stroke-linejoin:round;stroke:#000;stroke-opacity:1;stroke-miterlimit:10" d="M414.57 191.003 296.387 988.12l189.496-3.08Zm0 0" transform="matrix(.09893 0 0 -.09893 0 198.837)"/><path style="stroke:none;fill-rule:nonzero;fill:#632e78;fill-opacity:1" d="M41.012 179.941 15.676 98.707l13.644 2.379"/><path style="fill:none;stroke-width:5;stroke-linecap:round;stroke-linejoin:round;stroke:#000;stroke-opacity:1;stroke-miterlimit:10" d="m414.57 191.003-256.11 821.164 137.927-24.048Zm0 0" transform="matrix(.09893 0 0 -.09893 0 198.837)"/><path style="stroke:none;fill-rule:nonzero;fill:#464646;fill-opacity:1" d="m41.012 179.941-28.567-84.59 3.23 3.356"/><path style="fill:none;stroke-width:5;stroke-linecap:round;stroke-linejoin:round;stroke:#000;stroke-opacity:1;stroke-miterlimit:10" d="m414.57 191.003-288.766 855.083 32.656-33.92Zm0 0" transform="matrix(.09893 0 0 -.09893 0 198.837)"/><path style="stroke:none;fill-rule:nonzero;fill:#2d2d52;fill-opacity:1" d="m41.012 5.715 28.832 90.512-4.965-3.188"/><path style="fill:none;stroke-width:5;stroke-linecap:round;stroke-linejoin:round;stroke:#000;stroke-opacity:1;stroke-miterlimit:10" d="m414.57 1952.185 291.45-914.944-50.187 32.22Zm0 0" transform="matrix(.09893 0 0 -.09893 0 198.837)"/><path style="stroke:none;fill-rule:nonzero;fill:#07078c;fill-opacity:1" d="M41.012 5.715 12.445 95.352l3.23 3.355"/><path style="fill:none;stroke-width:5;stroke-linecap:round;stroke-linejoin:round;stroke:#000;stroke-opacity:1;stroke-miterlimit:10" d="m414.57 1952.185-288.766-906.1 32.656-33.918Zm0 0" transform="matrix(.09893 0 0 -.09893 0 198.837)"/><path style="stroke:none;fill-rule:nonzero;fill:#fbe6a1;fill-opacity:1" d="m41.012 5.715 28.832 90.512-6.13 3.238"/><path style="fill:none;stroke-width:5;stroke-linecap:round;stroke-linejoin:round;stroke:#000;stroke-opacity:1;stroke-miterlimit:10" d="m414.57 1952.185 291.45-914.944-61.954-32.735Zm0 0" transform="matrix(.09893 0 0 -.09893 0 198.837)"/><path style="stroke:none;fill-rule:nonzero;fill:#7369b9;fill-opacity:1" d="M41.012 5.715 15.676 98.707l13.644 2.379"/><path style="fill:none;stroke-width:5;stroke-linecap:round;stroke-linejoin:round;stroke:#000;stroke-opacity:1;stroke-miterlimit:10" d="m414.57 1952.185-256.11-940.018 137.927-24.048Zm0 0" transform="matrix(.09893 0 0 -.09893 0 198.837)"/><path style="stroke:none;fill-rule:nonzero;fill:#d8baba;fill-opacity:1" d="m41.012 5.715 7.054 95.676 15.649-1.926"/><path style="fill:none;stroke-width:5;stroke-linecap:round;stroke-linejoin:round;stroke:#000;stroke-opacity:1;stroke-miterlimit:10" d="m414.57 1952.185 71.313-967.145 158.183 19.466Zm0 0" transform="matrix(.09893 0 0 -.09893 0 198.837)"/><path style="stroke:none;fill-rule:nonzero;fill:#ae95bc;fill-opacity:1" d="m41.012 5.715-11.692 95.37 18.746.306"/><path style="fill:none;stroke-width:5;stroke-linecap:round;stroke-linejoin:round;stroke:#000;stroke-opacity:1;stroke-miterlimit:10" d="M414.57 1952.185 296.387 988.12l189.496-3.08Zm0 0" transform="matrix(.09893 0 0 -.09893 0 198.837)"/></svg>
